packages/icons/src/components/ProductIcon/assets/vps-store-servers.svg

<svg width="64" height="64" viewBox="0 0 64 64" fill="none" xmlns="http://www.w3.org/2000/svg">
<path d="M0 16C0 7.16344 7.16344 0 16 0H48C56.8366 0 64 7.16344 64 16V48C64 56.8366 56.8366 64 48 64H16C7.16344 64 0 56.8366 0 48V16Z" fill="#521094" class="fillWeak"/>
<path fill-rule="evenodd" clip-rule="evenodd" d="M48 2H16C8.26801 2 2 8.26801 2 16V48C2 55.732 8.26801 62 16 62H48C55.732 62 62 55.732 62 48V16C62 8.26801 55.732 2 48 2ZM16 0C7.16344 0 0 7.16344 0 16V48C0 56.8366 7.16344 64 16 64H48C56.8366 64 64 56.8366 64 48V16C64 7.16344 56.8366 0 48 0H16Z" fill="#521094" class="fillWeak"/>
<path d="M14.0527 28.8672C14.6048 28.8593 15.0584 29.3004 15.0664 29.8525C15.0681 29.9708 15.0499 30.0846 15.0137 30.1904L15 30.2217V37.4297L15.0029 37.6436C15.1753 42.6572 22.0023 46.9289 30.7324 47.3096C30.9802 48.015 31.2874 48.6922 31.6475 49.3359C21.6646 49.2235 13.4386 44.3464 13.0166 37.9414L13.0039 37.6943L13 37.4463V28.8818L14.0527 28.8672Z" fill="#BF95F9" class="fillStrong"/>
<path d="M49.6826 39.9199C50.4026 39.9199 50.986 40.0969 51.4326 40.4502C51.886 40.7969 52.136 41.2835 52.1826 41.9102H50.6426C50.6292 41.6702 50.5262 41.4736 50.333 41.3203C50.1463 41.1603 49.8963 41.0801 49.583 41.0801C49.3097 41.0801 49.0895 41.15 48.9229 41.29C48.7629 41.43 48.6826 41.6338 48.6826 41.9004C48.6827 42.0869 48.7434 42.2436 48.8633 42.3701C48.9899 42.49 49.1434 42.59 49.3232 42.6699C49.5098 42.7432 49.7696 42.8298 50.1025 42.9297C50.5559 43.063 50.9262 43.1968 51.2129 43.3301C51.4995 43.4634 51.7465 43.6631 51.9531 43.9297C52.1597 44.1963 52.2626 44.5464 52.2627 44.9795C52.2627 45.3528 52.1659 45.6996 51.9727 46.0195C51.7793 46.3395 51.4964 46.5967 51.123 46.79C50.7497 46.9767 50.3063 47.0703 49.793 47.0703C49.3063 47.0703 48.866 46.987 48.4727 46.8203C48.0861 46.6536 47.7794 46.4129 47.5527 46.0996C47.3263 45.7864 47.2098 45.4166 47.2031 44.9902H48.7031C48.7232 45.2767 48.823 45.5033 49.0029 45.6699C49.1895 45.8365 49.4428 45.9199 49.7627 45.9199C50.0894 45.9199 50.3465 45.8428 50.5332 45.6895C50.7195 45.5296 50.8134 45.3233 50.8135 45.0703C50.8135 44.8636 50.7497 44.6929 50.623 44.5596C50.4964 44.4263 50.3358 44.3233 50.1426 44.25C49.956 44.1701 49.6963 44.0835 49.3633 43.9902C48.9099 43.8569 48.5396 43.7263 48.2529 43.5996C47.973 43.4663 47.73 43.2697 47.5234 43.0098C47.3235 42.7432 47.2227 42.3901 47.2227 41.9502C47.2227 41.5369 47.3266 41.1768 47.5332 40.8701C47.7399 40.5635 48.03 40.3299 48.4033 40.1699C48.7765 40.0034 49.2029 39.92 49.6826 39.9199Z" fill="#BF95F9" class="fillStrong"/>
<path d="M37.0596 45.5703L38.9697 40.0195H40.46L37.8994 47H36.1992L33.6396 40.0195H35.1396L37.0596 45.5703Z" fill="#BF95F9" class="fillStrong"/>
<path fill-rule="evenodd" clip-rule="evenodd" d="M43.8691 40.0195C44.4091 40.0195 44.8691 40.1132 45.249 40.2998C45.629 40.4865 45.912 40.7436 46.0986 41.0703C46.2919 41.3969 46.3886 41.7665 46.3887 42.1797C46.3887 42.5529 46.299 42.9029 46.1191 43.2295C45.9458 43.5561 45.669 43.8195 45.2891 44.0195C44.9158 44.2195 44.4424 44.3203 43.8691 44.3203H42.6992V47H41.2988V40.0195H43.8691ZM42.6992 43.1895H43.8086C44.1953 43.1895 44.4823 43.103 44.6689 42.9297C44.8556 42.7497 44.9492 42.4996 44.9492 42.1797C44.9491 41.4998 44.5685 41.1602 43.8086 41.1602H42.6992V43.1895Z" fill="#BF95F9" class="fillStrong"/>
<path d="M51 28.8818V32.7568C50.3759 32.2687 49.7081 31.8339 49 31.4648V30.2246L48.9863 30.1904C48.9622 30.1198 48.9463 30.0454 48.9385 29.9688L48.9336 29.8525C48.9416 29.3004 49.3952 28.8593 49.9473 28.8672L51 28.8818Z" fill="#BF95F9" class="fillStrong"/>
<path fill-rule="evenodd" clip-rule="evenodd" d="M32 15.1836C36.1857 15.1836 39.5791 17.3048 39.5791 19.9209C39.5787 22.5368 36.1855 24.6572 32 24.6572C27.8145 24.6572 24.4213 22.5368 24.4209 19.9209C24.4209 17.3048 27.8143 15.1836 32 15.1836ZM32 17.1836C28.7791 17.1836 26.4209 18.6578 26.4209 19.9209C26.4215 21.1839 28.7794 22.6572 32 22.6572C35.2206 22.6572 37.5785 21.1839 37.5791 19.9209C37.5791 18.6578 35.2209 17.1836 32 17.1836Z" fill="#BF95F9" class="fillStrong"/>
<path fill-rule="evenodd" clip-rule="evenodd" d="M32 8.5C42.4021 8.5 50.9674 13.6722 51 20.3564V28.9209C51 29.7267 50.873 30.5098 50.6367 31.2656C54.4674 33.7637 57 38.0857 57 43C57 50.732 50.732 57 43 57C35.268 57 29 50.732 29 43C29 42.2112 29.066 41.4378 29.1914 40.6846C20.3477 39.8736 13.4036 35.2871 13.0166 29.416L13.0039 29.1689L13 28.9209V20.3564C13.0326 13.6722 21.5979 8.5 32 8.5ZM43 31C36.3726 31 31 36.3726 31 43C31 49.6274 36.3726 55 43 55C49.6274 55 55 49.6274 55 43C55 36.3726 49.6274 31 43 31ZM15 28.9043L15.0029 29.1172C15.1681 33.9252 21.4533 38.0496 29.668 38.7158C30.4926 36.1477 32.0385 33.9028 34.0674 32.2197C33.3879 32.2651 32.6981 32.2891 32 32.2891C24.6004 32.2891 18.1303 29.672 15 25.7549V28.9043ZM32 10.5C22.5398 10.5 15.0002 15.0634 15 20.3945C15 25.7258 22.5397 30.2891 32 30.2891C41.4603 30.2891 49 25.7258 49 20.3945C48.9998 15.0634 41.4602 10.5 32 10.5ZM49 25.7549C47.9762 27.036 46.5945 28.177 44.9404 29.1338C46.3122 29.324 47.6203 29.7128 48.835 30.2705C48.9255 29.8987 48.9813 29.5216 48.9961 29.1396L49 28.9209V25.7549Z" fill="white" class="fill"/>
</svg>

<svg xmlns="http://www.w3.org/2000/svg" width="64" height="64" fill="none" viewBox="0 0 64 64">
    <path fill="#521094" d="M0 16C0 7.163 7.163 0 16 0h32c8.837 0 16 7.163 16 16v32c0 8.837-7.163 16-16 16H16C7.163 64 0 56.837 0 48z" class="fillWeak"/>
    <path fill="#521094" fill-rule="evenodd" d="M48 2H16C8.268 2 2 8.268 2 16v32c0 7.732 6.268 14 14 14h32c7.732 0 14-6.268 14-14V16c0-7.732-6.268-14-14-14M16 0C7.163 0 0 7.163 0 16v32c0 8.837 7.163 16 16 16h32c8.837 0 16-7.163 16-16V16c0-8.837-7.163-16-16-16z" class="fillWeak" clip-rule="evenodd"/>
    <path fill="#bf95f9" d="M14.053 28.867a1 1 0 0 1 .96 1.323l-.013.032v7.208l.003.214c.172 5.013 7 9.285 15.73 9.666q.372 1.059.915 2.026c-9.983-.112-18.21-4.99-18.631-11.395l-.013-.247-.004-.248v-8.564zm35.63 11.053q1.08 0 1.75.53.68.52.75 1.46h-1.54a.78.78 0 0 0-.31-.59q-.28-.24-.75-.24-.41 0-.66.21-.24.21-.24.61 0 .28.18.47.19.18.46.3.28.11.78.26.68.2 1.11.4t.74.6.31 1.05q0 .56-.29 1.04a2.1 2.1 0 0 1-.85.77q-.56.28-1.33.28-.73 0-1.32-.25a2.17 2.17 0 0 1-.92-.72 1.9 1.9 0 0 1-.35-1.11h1.5q.03.43.3.68.28.25.76.25.49 0 .77-.23a.78.78 0 0 0 .28-.62.7.7 0 0 0-.19-.51 1.3 1.3 0 0 0-.48-.31 7 7 0 0 0-.78-.26 9 9 0 0 1-1.11-.39 2.06 2.06 0 0 1-.73-.59q-.3-.4-.3-1.06 0-.62.31-1.08t.87-.7q.56-.25 1.28-.25M37.06 45.57l1.91-5.55h1.49L37.9 47h-1.7l-2.56-6.98h1.5z" class="fillStrong"/>
    <path fill="#bf95f9" fill-rule="evenodd" d="M43.87 40.02q.81 0 1.379.28.57.28.85.77.29.49.29 1.11 0 .56-.27 1.05-.26.49-.83.79-.56.3-1.42.3H42.7V47h-1.4v-6.98zm-1.17 3.17h1.109q.58 0 .86-.26.28-.27.28-.75 0-1.02-1.14-1.02h-1.11z" class="fillStrong" clip-rule="evenodd"/>
    <path fill="#bf95f9" d="M51 28.882v3.875a13 13 0 0 0-2-1.292v-1.24l-.014-.035a1 1 0 0 1-.047-.221l-.005-.117a1 1 0 0 1 1.013-.985z" class="fillStrong"/>
    <path fill="#bf95f9" fill-rule="evenodd" d="M32 15.184c4.186 0 7.58 2.12 7.58 4.737-.001 2.616-3.395 4.736-7.58 4.736s-7.579-2.12-7.58-4.736c0-2.616 3.394-4.737 7.58-4.737m0 2c-3.22 0-5.58 1.474-5.58 2.737.002 1.263 2.36 2.736 5.58 2.736s5.578-1.473 5.58-2.736c0-1.263-2.36-2.737-5.58-2.737" class="fillStrong" clip-rule="evenodd"/>
    <path fill="#fff" fill-rule="evenodd" d="M32 8.5c10.402 0 18.967 5.172 19 11.856v8.565c0 .806-.127 1.589-.363 2.345C54.467 33.764 57 38.086 57 43c0 7.732-6.268 14-14 14s-14-6.268-14-14q.002-1.184.191-2.315c-8.843-.811-15.787-5.398-16.174-11.269l-.013-.247L13 28.92v-8.565C13.033 13.672 21.598 8.5 32 8.5M43 31c-6.627 0-12 5.373-12 12s5.373 12 12 12 12-5.373 12-12-5.373-12-12-12m-28-2.096.003.213c.165 4.808 6.45 8.933 14.665 9.599a14 14 0 0 1 4.4-6.496q-1.02.069-2.068.07c-7.4 0-13.87-2.618-17-6.535zM32 10.5c-9.46 0-17 4.563-17 9.895 0 5.33 7.54 9.894 17 9.894s17-4.563 17-9.894S41.46 10.5 32 10.5m17 15.255c-1.024 1.281-2.406 2.422-4.06 3.379a13.9 13.9 0 0 1 3.895 1.136q.137-.557.161-1.13l.004-.22z" class="fill" clip-rule="evenodd"/>
</svg>
